assets/symbols/mulberry/flag_israel.svg

<svg height="850.394" viewBox="0 0 850.394 850.394" width="850.394" xmlns="http://www.w3.org/2000/svg"><path d="m168.56 520.17-.47-51.47h580.09v51.47z" fill="#fff"/><path d="m162.61 196v589.38h-39.49l-1.12-670.61c5.8 2.59 12.62 4.08 19.92 4.08 7.62 0 14.73-1.63 20.69-4.43z" fill="#c8c8c8"/><path d="m748.18 416v52.7h-580.09l-.49-52.7z" fill="#0071bc"/><g fill="#fff"><path d="m748.18 254v162h-580.58l-1.49-162zm-253.46 116.4-19.109-35.44 15.159-28.22-32.119-.65-17.651-28.43-17.34 28.14-35.79.94 16.97 31.57-17.28 32.25 36.77 1.06 14.99 24.24 14.96-24.17z"/><path d="m458.65 306.09 32.12.65-15.16 28.22-6.33-11.74zm-34.32 65.53-36.77-1.06 17.28-32.25 7.4 13.77zm16.67-93.96 17.65 28.43-25.95-.53-9.04.24zm.14 94.45 13.14-.42-14.96 24.17-14.99-24.24z"/><path d="m469.28 323.22 6.33 11.74-9.2 17.12-12.13 19.61-13.14.42-16.81-.49-12.09-19.54-7.4-13.77 8.03-15 10.79-17.51 9.04-.24 25.95.53z"/><path d="m475.61 334.96 19.11 35.44-40.44 1.29 12.13-19.61zm-70.77 3.35-16.97-31.57 35.79-.94-10.79 17.51z"/></g><path d="m748.18 196v58h-582.07l-.53-58h582.42z" fill="#0071bc"/><path d="m748.18 177.46v18.54h-582.6l-.51-55.66h583.11z" fill="#fff"/><path d="m162.61 114.42c-5.96 2.8-13.07 4.43-20.69 4.43-7.3 0-14.12-1.49-19.92-4.08-10.99-4.89-18.33-13.72-18.33-23.8 0-15.4 17.13-27.88 38.25-27.88 21.13 0 38.26 12.48 38.26 27.88 0 9.84-7 18.49-17.57 23.45z" fill="#c8c8c8"/><g fill="none"><g stroke="#231f20"><path d="m165.07 140.34h583.11v379.83h-579.62m-46.56-405.4c-10.99-4.89-18.33-13.72-18.33-23.8 0-15.4 17.13-27.88 38.25-27.88 21.13 0 38.26 12.48 38.26 27.88 0 9.84-7 18.49-17.57 23.45-5.96 2.8-13.07 4.43-20.69 4.43-7.3 0-14.12-1.49-19.92-4.08z" stroke-width="21"/><path d="m122 114v.77l1.12 670.61m39.49-672.78v672.78" stroke-width="21"/><path d="m744.76 179.39 3.42-1.93 2.01-1.14m1.01 305.06-3.02-1.78-7.12-4.19m-577.06-221.41h584m-584 162h586m-584.26 52.7h579.88m-583.62-272.7h586" stroke-width="14"/></g><path d="m423.66 305.8 9.04-.24 25.95.53 32.12.65-15.16 28.22-9.2 17.12-12.13 19.61-14.96 24.17-14.99-24.24-12.09-19.54-7.4-13.77-16.97-31.57z" stroke="#0071bc" stroke-width="14"/><path d="m454.28 371.69-13.14.42-16.81-.49-36.77-1.06 17.28-32.25 8.03-15 10.79-17.51 17.34-28.14 17.65 28.43 10.63 17.13 6.33 11.74 19.11 35.44z" stroke="#0071bc" stroke-width="14"/></g><path d="m0 0h850.394v850.394h-850.394z" fill="none"/></svg>

<svg xmlns="http://www.w3.org/2000/svg" width="850.394" height="850.394" viewBox="0 0 850.394 850.394" overflow="visible"><path fill="#fff" d="M168.56 520.17l-.47-51.47H748.18v51.47z"/><path d="M162.61 196v589.38h-39.49L122 114.77c5.8 2.59 12.62 4.08 19.92 4.08 7.62 0 14.73-1.63 20.69-4.43V196z" fill="#c8c8c8"/><path fill="#0071bc" d="M748.18 416v52.7H168.09l-.49-52.7z"/><path d="M748.18 254v162H167.6l-1.49-162H748.18zM494.72 370.4l-19.109-35.44 15.159-28.22-32.119-.65L441 277.66l-17.34 28.14-35.79.94 16.97 31.57-17.28 32.25 36.77 1.06 14.99 24.24 14.96-24.17 40.44-1.29z" fill="#fff"/><path fill="#fff" d="M458.65 306.09l32.12.65-15.16 28.22-6.33-11.74zM424.33 371.62l-36.77-1.06 17.28-32.25 7.4 13.77zM441 277.66l17.65 28.43-25.95-.53-9.04.24zM441.14 372.11l13.14-.42-14.96 24.17-14.99-24.24z"/><path fill="#fff" d="M469.28 323.22l6.33 11.74-9.2 17.12-12.13 19.61-13.14.42-16.81-.49-12.09-19.54-7.4-13.77 8.03-15 10.79-17.51 9.04-.24 25.95.53z"/><path fill="#fff" d="M475.61 334.96l19.11 35.44-40.44 1.29 12.13-19.61zM404.84 338.31l-16.97-31.57 35.79-.94-10.79 17.51z"/><path fill="#0071bc" d="M748.18 196v58H166.11l-.53-58H748z"/><path fill="#fff" d="M748.18 177.46V196H165.58l-.51-55.66h583.11z"/><path d="M162.61 114.42c-5.96 2.8-13.07 4.43-20.69 4.43-7.3 0-14.12-1.49-19.92-4.08-10.99-4.89-18.33-13.72-18.33-23.8 0-15.4 17.13-27.88 38.25-27.88 21.13 0 38.26 12.48 38.26 27.88 0 9.84-7 18.49-17.57 23.45z" fill="#c8c8c8"/><g fill="none"><path stroke="#231f20" stroke-width="21" d="M165.07 140.34h583.11V520.17H168.56M122 114.77c-10.99-4.89-18.33-13.72-18.33-23.8 0-15.4 17.13-27.88 38.25-27.88 21.13 0 38.26 12.48 38.26 27.88 0 9.84-7 18.49-17.57 23.45-5.96 2.8-13.07 4.43-20.69 4.43-7.3 0-14.12-1.49-19.92-4.08z"/><path stroke="#231f20" stroke-width="21" d="M122 114v.77l1.12 670.61M162.61 112.6v672.78"/><path stroke="#231f20" stroke-width="14" d="M744.76 179.39l3.42-1.93 2.01-1.14M751.2 481.38l-3.02-1.78-7.12-4.19M164 254h584M164 416H750M165.74 468.7h579.88M162 196h586"/><path stroke="#0071bc" stroke-width="14" d="M423.66 305.8l9.04-.24 25.95.53 32.12.65-15.16 28.22-9.2 17.12-12.13 19.61-14.96 24.17-14.99-24.24-12.09-19.54-7.4-13.77-16.97-31.57z"/><path stroke="#0071bc" stroke-width="14" d="M454.28 371.69l-13.14.42-16.81-.49-36.77-1.06 17.28-32.25 8.03-15 10.79-17.51L441 277.66l17.65 28.43 10.63 17.13 6.33 11.74 19.11 35.44z"/></g><path fill="none" d="M0 0h850.394v850.394H0z"/></svg>
